X: 37
T: Gen. Monroe's Lamentation   #2
R: air
%S: s:2 b:24(12+12)
B: "O'Neill's 1850 *37"
Q: "Moderate"
O: J.O'Neill
Z: Norbert Paap, norbertp@bdu.uva.nl
N: Compacted via repeats and multiple endings [JC]
M: 3/4
L: 1/4
K: Gm
(G/F/) "^A"|: DG>A | GFD | BA>B | c=Bc | dgf | d2c/d/ |[1 cB>G | GF2 :|[2 BGG | G3 "^B"|: dg>g | gab |
|[1 agg | fd2 :|2 aba | g3 "^C"|[| fdc | B2(A/B/) | GAG | GFG/A/ | BA>B | c=Bc | dGG | G2 |]
